X: 21483
M: 2/4
L: 1/8
K: C
V: 1 name="3"
[|\
~Gceg | agfe | {e}dcdB | dcc2 H|]
e^cdc | de/f/ g2 | f^f/g/ a2 | dg/a/ b2 |\
b^aba | g^fge | dc'/b/ a^f | ag"^D.C."g2 :|
{A}cz {c}ez | a3b/c'/ | eGcg | dgbg |\
ceae | be^ge | adBg | c3 "^D.C."z  :|


